X:558
T: MAIKAEFER FLIEG
N: E1850
O: Europa, Mitteleuropa, Deutschland, Weissenfels
R: Kinder - Lied, Tier - Lied
M: 2/4
L: 1/8
K: G
 | d2cA | G2z
d | ddcA | G2z
B | BBBB | Add
d | ddcA | GGGz

